ui/view/assets/start-logo.svg

<?xml version="1.0" encoding="utf-8"?>
<!-- Generator: SketchAPI 2019.0.28 <https://api.sketch.io/> -->
<svg version="1.1" xmlns="http://www.w3.org/2000/svg" xmlns:xlink="http://www.w3.org/1999/xlink" xmlns:sketchjs="https://sketch.io/dtd/" sketchjs:metadata="eyJuYW1lIjoiTXkgRHJhd2luZyIsImRlc2NyaXB0aW9uIjoibWFkZSB3aXRoIGh0dHA6Ly9sb2dvbWFrci5jb20iLCJtZXRhZGF0YSI6eyJ1c2VyQWdlbnQiOnsidXNlckFnZW50IjoiTW96aWxsYS81LjAgKE1hY2ludG9zaDsgSW50ZWwgTWFjIE9TIFggMTBfMTRfNSkgQXBwbGVXZWJLaXQvNjA1LjEuMTUgKEtIVE1MLCBsaWtlIEdlY2tvKSBWZXJzaW9uLzEyLjEuMSBTYWZhcmkvNjA1LjEuMTUiLCJwaGFudG9tIjpmYWxzZSwiY2hyb21lQXBwIjpmYWxzZSwibm9kZSI6ZmFsc2UsIm5vZGVXZWJraXQiOmZhbHNlLCJlbGVjdHJvbiI6ZmFsc2UsImVkZ2UiOmZhbHNlLCJmaXJlZm94IjpmYWxzZSwiaWUiOmZhbHNlLCJvcGVyYSI6ZmFsc2UsImNocm9tZSI6ZmFsc2UsInNhZmFyaSI6dHJ1ZSwiaU9TIjpmYWxzZSwiYmxhY2tiZXJyeSI6ZmFsc2UsIm1hYyI6dHJ1ZSwid2luZG93cyI6ZmFsc2UsImxpbnV4IjpmYWxzZSwiYW5kcm9pZCI6ZmFsc2UsImxhbmciOiJlbi11cyIsImhpc3RvcnkiOnRydWUsImNob29zZUVudHJ5IjpmYWxzZSwiY3NzQmFja2dyb3VuZEJsZW5kTW9kZSI6ImJhY2tncm91bmRCbGVuZE1vZGUiLCJjc3NCYWNrZ3JvdW5kQ2xpcCI6ImJhY2tncm91bmRDbGlwIiwiY3NzRmlsdGVyIjoiZmlsdGVyIiwiY3NzVGV4dEZpbGxDb2xvciI6IndlYmtpdFRleHRGaWxsQ29sb3IiLCJjc3NUcmFuc2Zvcm0iOiJ0cmFuc2Zvcm0iLCJjc3NUcmFuc2Zvcm1PcmlnaW4iOiJ0cmFuc2Zvcm1PcmlnaW4iLCJjYW52YXMiOnRydWUsImN0eEltYWdlU21vb3RoaW5nIjp0cnVlLCJjdHhMaW5lRGFzaCI6dHJ1ZSwiY2FudmFzX2lvX2Jsb2JfbmF0aXZlIjp0cnVlLCJjdHhCbGlwIjp0cnVlLCJnY28iOnsic291cmNlLW92ZXIiOnRydWUsInNvdXJjZS1pbiI6dHJ1ZSwic291cmNlLW91dCI6dHJ1ZSwic291cmNlLWF0b3AiOnRydWUsImRlc3RpbmF0aW9uLW92ZXIiOnRydWUsImRlc3RpbmF0aW9uLWluIjp0cnVlLCJkZXN0aW5hdGlvbi1vdXQiOnRydWUsImRlc3RpbmF0aW9uLWF0b3AiOnRydWUsImxpZ2h0ZXIiOnRydWUsImNvcHkiOnRydWUsInhvciI6dHJ1ZSwiX19jb21wb3NpdGUiOnRydWUsIm5vcm1hbCI6dHJ1ZSwibXVsdGlwbHkiOnRydWUsInNjcmVlbiI6dHJ1ZSwib3ZlcmxheSI6dHJ1ZSwiZGFya2VuIjp0cnVlLCJsaWdodGVuIjp0cnVlLCJjb2xvci1kb2RnZSI6dHJ1ZSwiY29sb3ItYnVybiI6dHJ1ZSwiaGFyZC1saWdodCI6dHJ1ZSwic29mdC1saWdodCI6dHJ1ZSwiZGlmZmVyZW5jZSI6dHJ1ZSwiZXhjbHVzaW9uIjp0cnVlLCJodWUiOnRydWUsInNhdHVyYXRpb24iOnRydWUsImNvbG9yIjp0cnVlLCJsdW1pbm9zaXR5Ijp0cnVlLCJfX2JsZW5kIjp0cnVlfSwicGl4ZWxSYXRpbyI6MSwiY2hyb21lNjREcmF3SW1hZ2VCdWciOmZhbHNlLCJpbmNvZ25pdG8iOmZhbHNlLCJjYW52YXNfaW9fYmxvYiI6dHJ1ZSwiY2xpcGJvYXJkIjp0cnVlfX0sImNsaXBQYXRoIjp7ImVuYWJsZWQiOnRydWV9LCJleHBvcnREUEkiOjcyLCJleHBvcnRGb3JtYXQiOiJwbmciLCJleHBvcnRRdWFsaXR5IjowLjk1LCJ1bml0cyI6InB4Iiwid2lkdGgiOjE0NDAsImhlaWdodCI6Njk2LCJwYWdlcyI6eyJsZW5ndGgiOjEsImRhdGEiOlt7IndpZHRoIjoxNDQwLCJoZWlnaHQiOjY5Nn1dfX0=" width="818" height="131" viewBox="320 182 818 131" sketchjs:version="2019.0.28">
<g sketchjs:tool="fancyText" style="mix-blend-mode: source-over;" transform="matrix(1,0,0,1,469,151)">
	<g sketchjs:uid="1">
		<g sketchjs:uid="2" style="paint-order: stroke fill markers;">
			<path d="M 118.9175 156L 37.3175 156L 37.3175 35.3L 49.2175 35.3L 49.2175 145.46L 118.9175 145.46L 118.9175 156ZZM 145.60750000000002 156L 134.0475 156L 134.0475 67.42999999999999L 145.60750000000002 67.42999999999999L 145.60750000000002 156ZZM 145.60750000000002 48.89999999999999L 134.0475 48.89999999999999L 134.0475 31.89999999999999L 145.60750000000002 31.89999999999999L 145.60750000000002 48.89999999999999ZZM 210.5475 142.4L 213.60750000000002 151.75Q 212.58750000000003 152.26 210.63250000000002 153.11Q 208.6775 153.96 206.12750000000003 154.81Q 203.57750000000001 155.66 200.34750000000003 156.34Q 197.1175 157.02 193.5475 157.02L 193.5475 157.02Q 189.8075 157.02 186.40750000000003 156Q 183.00750000000002 154.98 180.4575 152.855Q 177.90750000000003 150.73 176.37750000000003 147.5Q 174.84750000000003 144.27 174.84750000000003 140.02L 174.84750000000003 140.02L 174.84750000000003 76.61L 162.60750000000002 76.61L 162.60750000000002 67.42999999999999L 174.84750000000003 67.42999999999999L 174.84750000000003 37.50999999999999L 186.40750000000003 37.50999999999999L 186.40750000000003 67.42999999999999L 206.8075 67.42999999999999L 206.8075 76.61L 186.40750000000003 76.61L 186.40750000000003 136.79Q 186.7475 141.72 189.8925 144.015Q 193.03750000000002 146.31 197.1175 146.31L 197.1175 146.31Q 202.0475 146.31 205.78750000000002 144.695Q 209.52750000000003 143.07999999999998 210.5475 142.4L 210.5475 142.4ZZM 264.0975 157.7L 264.0975 157.7Q 254.4075 157.7 246.33249999999998 154.045Q 238.2575 150.39 232.3075 144.015Q 226.3575 137.64 223.0425 129.31Q 219.7275 120.97999999999999 219.7275 111.46L 219.7275 111.46Q 219.7275 102.11 223.0425 93.865Q 226.3575 85.61999999999999 232.2225 79.41499999999999Q 238.0875 73.21 246.2475 69.55499999999999Q 254.4075 65.89999999999999 263.9275 65.89999999999999L 263.9275 65.89999999999999Q 273.6175 65.89999999999999 281.6925 69.55499999999999Q 289.7675 73.21 295.5475 79.5Q 301.3275 85.78999999999999 304.5575 93.94999999999999Q 307.7875 102.11 307.7875 111.28999999999999L 307.7875 111.28999999999999Q 307.7875 112.65 307.7875 114.00999999999999Q 307.7875 115.37 307.6175 115.88L 307.6175 115.88L 231.7975 115.88Q 232.3075 123.02 235.1125 129.055Q 237.9175 135.09 242.3375 139.51Q 246.7575 143.93 252.4525 146.395Q 258.1475 148.86 264.6075 148.86L 264.6075 148.86Q 268.8575 148.86 273.1075 147.67Q 277.3575 146.48 280.9275 144.44Q 284.4975 142.4 287.3875 139.425Q 290.27750000000003 136.45 291.8075 132.88L 291.8075 132.88L 301.8375 135.6Q 299.7975 140.53 296.0575 144.525Q 292.3175 148.52 287.3875 151.495Q 282.4575 154.47 276.5075 156.085Q 270.5575 157.7 264.0975 157.7ZZM 231.6275 107.03999999999999L 296.7375 107.03999999999999Q 296.2275 99.9 293.4225 94.035Q 290.6175 88.17 286.2825 83.92Q 281.9475 79.66999999999999 276.2525 77.28999999999999Q 270.5575 74.91 264.0975 74.91L 264.0975 74.91Q 257.6375 74.91 251.85750000000002 77.28999999999999Q 246.0775 79.66999999999999 241.7425 83.92Q 237.4075 88.17 234.7725 94.12Q 232.1375 100.07 231.6275 107.03999999999999L 231.6275 107.03999999999999ZZM 319.5175 111.46L 319.5175 111.46Q 319.5175 102.11 322.7475 93.78Q 325.97749999999996 85.44999999999999 331.8425 79.24499999999999Q 337.7075 73.03999999999999 345.8675 69.47Q 354.0275 65.89999999999999 363.8875 65.89999999999999L 363.8875 65.89999999999999Q 376.4675 65.89999999999999 385.8175 71.595Q 395.1675 77.28999999999999 399.9275 86.97999999999999L 399.9275 86.97999999999999L 388.7075 90.55Q 384.9675 83.75 378.2525 79.925Q 371.5375 76.1 363.3775 76.1L 363.3775 76.1Q 356.5775 76.1 350.7125 78.82Q 344.84749999999997 81.53999999999999 340.5125 86.21499999999999Q 336.1775 90.89 333.7125 97.35Q 331.2475 103.81 331.2475 111.46L 331.2475 111.46Q 331.2475 118.94 333.7975 125.57Q 336.34749999999997 132.2 340.7675 137.045Q 345.1875 141.89 351.0525 144.695Q 356.9175 147.5 363.5475 147.5L 363.5475 147.5Q 367.7975 147.5 371.9625 146.31Q 376.1275 145.12 379.6975 142.995Q 383.2675 140.87 385.8175 138.15Q 388.3675 135.43 389.3875 132.37L 389.3875 132.37L 400.7775 135.77Q 398.9075 140.53 395.3375 144.525Q 391.7675 148.52 386.9225 151.495Q 382.0775 154.47 376.2125 156.085Q 370.34749999999997 157.7 364.0575 157.7L 364.0575 157.7Q 354.3675 157.7 346.2075 154.045Q 338.0475 150.39 332.09749999999997 144.015Q 326.1475 137.64 322.8325 129.31Q 319.5175 120.97999999999999 319.5175 111.46ZZM 441.23749999999995 157.7L 441.23749999999995 157.7Q 434.9475 157.7 429.5925 155.575Q 424.23749999999995 153.45 420.24249999999995 149.71Q 416.24749999999995 145.97 414.03749999999997 140.95499999999998Q 411.8275 135.94 411.8275 130.16L 411.8275 130.16Q 411.8275 124.38 414.54749999999996 119.44999999999999Q 417.2675 114.52 422.1975 110.94999999999999Q 427.1275 107.38 433.92749999999995 105.425Q 440.72749999999996 103.47 448.8875 103.47L 448.8875 103.47Q 455.6875 103.47 462.65749999999997 104.66Q 469.6275 105.85 475.0675 108.06L 475.0675 108.06L 475.0675 100.07Q 475.0675 88.33999999999999 468.4375 81.455Q 461.8075 74.57 450.0775 74.57L 450.0775 74.57Q 443.2775 74.57 436.1375 77.28999999999999Q 428.99749999999995 80.00999999999999 421.6875 85.11L 421.6875 85.11L 417.60749999999996 77.46Q 434.7775 65.89999999999999 450.92749999999995 65.89999999999999L 450.92749999999995 65.89999999999999Q 467.5875 65.89999999999999 477.10749999999996 75.25Q 486.6275 84.6 486.6275 101.09L 486.6275 101.09L 486.6275 141.04Q 486.6275 145.8 490.8775 145.8L 490.8775 145.8L 490.8775 156Q 487.98749999999995 156.51 486.4575 156.51L 486.4575 156.51Q 482.03749999999997 156.51 479.5725 154.3Q 477.10749999999996 152.09 476.9375 148.18L 476.9375 148.18L 476.59749999999997 141.21Q 470.47749999999996 149.2 461.2125 153.45Q 451.9475 157.7 441.23749999999995 157.7ZZM 443.9575 148.86L 443.9575 148.86Q 452.9675 148.86 460.53249999999997 145.46Q 468.09749999999997 142.06 472.0075 136.45L 472.0075 136.45Q 473.53749999999997 134.92 474.3025 133.135Q 475.0675 131.35 475.0675 129.82L 475.0675 129.82L 475.0675 115.37Q 469.28749999999997 113.16 463.0825 111.97Q 456.8775 110.78 450.41749999999996 110.78L 450.41749999999996 110.78Q 438.17749999999995 110.78 430.5275 115.88Q 422.8775 120.97999999999999 422.8775 129.31L 422.8775 129.31Q 422.8775 133.39 424.49249999999995 136.96Q 426.10749999999996 140.53 428.91249999999997 143.165Q 431.7175 145.8 435.6275 147.33Q 439.53749999999997 148.86 443.9575 148.86ZZM 541.0274999999999 157.7L 541.0274999999999 157.7Q 530.6574999999999 157.7 520.7974999999999 154.3Q 510.93749999999994 150.9 503.79749999999996 144.44L 503.79749999999996 144.44L 509.06749999999994 136.62Q 516.5474999999999 142.74 524.2824999999999 145.8Q 532.0174999999999 148.86 540.8575 148.86L 540.8575 148.86Q 551.5675 148.86 557.9425 144.525Q 564.3175 140.19 564.3175 132.2L 564.3175 132.2Q 564.3175 128.46 562.6175 125.995Q 560.9174999999999 123.53 557.6025 121.66Q 554.2874999999999 119.78999999999999 549.2724999999999 118.345Q 544.2574999999999 116.9 537.6274999999999 115.37L 537.6274999999999 115.37Q 529.9775 113.5 524.3675 111.63Q 518.7574999999999 109.75999999999999 515.1025 107.38Q 511.44749999999993 105 509.66249999999997 101.51499999999999Q 507.87749999999994 98.03 507.87749999999994 92.75999999999999L 507.87749999999994 92.75999999999999Q 507.87749999999994 86.13 510.51249999999993 81.03Q 513.1474999999999 75.92999999999999 517.6524999999999 72.615Q 522.1574999999999 69.3 528.1925 67.6Q 534.2275 65.89999999999999 541.0274999999999 65.89999999999999L 541.0274999999999 65.89999999999999Q 551.2275 65.89999999999999 559.5575 69.21499999999999Q 567.8874999999999 72.52999999999999 572.9875 77.97L 572.9875 77.97L 567.3774999999999 84.77Q 562.4475 79.66999999999999 555.3924999999999 77.11999999999999Q 548.3375 74.57 540.6875 74.57L 540.6875 74.57Q 536.0975 74.57 532.1875 75.505Q 528.2774999999999 76.44 525.3025 78.47999999999999Q 522.3275 80.52 520.6274999999999 83.66499999999999Q 518.9275 86.80999999999999 518.9275 91.06L 518.9275 91.06Q 518.9275 94.63 520.1175 96.84Q 521.3075 99.05 524.0274999999999 100.66499999999999Q 526.7475 102.28 530.9124999999999 103.555Q 535.0775 104.83 541.0274999999999 106.19L 541.0274999999999 106.19Q 549.5274999999999 108.22999999999999 555.9875 110.27Q 562.4475 112.31 566.7824999999999 115.03Q 571.1175 117.75 573.3275 121.66Q 575.5374999999999 125.57 575.5374999999999 131.18L 575.5374999999999 131.18Q 575.5374999999999 143.42 566.1875 150.56Q 556.8375 157.7 541.0274999999999 157.7ZZM 668.8675 104.15L 668.8675 156L 657.3074999999999 156L 657.3074999999999 106.53Q 657.3074999999999 91.39999999999999 652.1225 83.92Q 646.9374999999999 76.44 636.9074999999999 76.44L 636.9074999999999 76.44Q 631.9775 76.44 627.1324999999999 78.395Q 622.2874999999999 80.35 618.0374999999999 83.75Q 613.7874999999999 87.14999999999999 610.6424999999999 91.74Q 607.4975 96.33 605.9675 101.77L 605.9675 101.77L 605.9675 156L 594.4074999999999 156L 594.4074999999999 31.89999999999999L 605.9675 31.89999999999999L 605.9675 87.49Q 611.2375 77.46 620.5874999999999 71.67999999999999Q 629.9374999999999 65.89999999999999 640.8174999999999 65.89999999999999L 640.8174999999999 65.89999999999999Q 648.4675 65.89999999999999 653.7375 68.705Q 659.0074999999999 71.50999999999999 662.4074999999999 76.52499999999999Q 665.8074999999999 81.53999999999999 667.3374999999999 88.595Q 668.8675 95.65 668.8675 104.15L 668.8675 104.15Z" sketchjs:uid="3" style="fill: #60b0f4;"/>
		</g>
	</g>
</g>
<path sketchjs:tool="triangle" style="fill: #60b0f4; mix-blend-mode: source-over; fill-opacity: 1; vector-effect: non-scaling-stroke;" d="M0 200 L200 200 100 0 z" transform="matrix(0.7399420766127897,0,0,0.6400498962700633,320,184)"/>
</svg>

<?xml version="1.0" encoding="UTF-8" standalone="no"?>
<svg
   xmlns:sketchjs="https://sketch.io/dtd/"
   xmlns:dc="http://purl.org/dc/elements/1.1/"
   xmlns:cc="http://creativecommons.org/ns#"
   xmlns:rdf="http://www.w3.org/1999/02/22-rdf-syntax-ns#"
   xmlns:svg="http://www.w3.org/2000/svg"
   xmlns="http://www.w3.org/2000/svg"
   xmlns:sodipodi="http://sodipodi.sourceforge.net/DTD/sodipodi-0.dtd"
   xmlns:inkscape="http://www.inkscape.org/namespaces/inkscape"
   width="220mm"
   height="54mm"
   viewBox="0 0 220 54"
   version="1.1"
   id="svg8"
   sodipodi:docname="drawing.svg"
   inkscape:version="1.0.2-2 (e86c870879, 2021-01-15)">
  <defs
     id="defs2" />
  <sodipodi:namedview
     id="base"
     pagecolor="#ffffff"
     bordercolor="#666666"
     borderopacity="1.0"
     inkscape:pageopacity="0.0"
     inkscape:pageshadow="2"
     inkscape:zoom="0.98994949"
     inkscape:cx="383.13858"
     inkscape:cy="27.313546"
     inkscape:document-units="mm"
     inkscape:current-layer="layer1"
     inkscape:document-rotation="0"
     showgrid="false"
     inkscape:window-width="1920"
     inkscape:window-height="1017"
     inkscape:window-x="-8"
     inkscape:window-y="-8"
     inkscape:window-maximized="1"
     units="mm"
     height="109mm" />
  <metadata
     id="metadata5">
    <rdf:RDF>
      <cc:Work
         rdf:about="">
        <dc:format>image/svg+xml</dc:format>
        <dc:type
           rdf:resource="http://purl.org/dc/dcmitype/StillImage" />
        <dc:title></dc:title>
      </cc:Work>
    </rdf:RDF>
  </metadata>
  <g
     inkscape:label="Layer 1"
     inkscape:groupmode="layer"
     id="layer1">
    <g
       style="overflow:visible"
       id="g41"
       transform="matrix(0.11710025,0,0,0.11551325,0.05071567,1.024827)">
      <path
         class="st0"
         d="M 395.1,259.9 H 333 l 12.4,21.5 h -97.8 l 48.9,-84.7 5.9,10.3 h 62.1 l -68,-117.8 -142,245.9 h 284 z"
         id="path28" />
      <polygon
         class="st0"
         points="276.1,53.8 93.1,370.6 459,370.6 490,424.4 0,424.4 95,259.9 25.9,259.9 56.5,207 125.5,207 245,0 "
         id="polygon30" />
    </g>
    <g
       id="g98"
       transform="matrix(0.2537567,0,0,0.25669435,-70.522453,-31.40235)"
       style="fill:#60b0f4;fill-opacity:1">
      <g
         sketchjs:tool="fancyText"
         transform="translate(469,151)"
         id="g81"
         style="fill:#60b0f4;fill-opacity:1">
        <g
           sketchjs:uid="1"
           id="g79"
           style="fill:#60b0f4;fill-opacity:1">
          <g
             sketchjs:uid="2"
             style="paint-order:stroke fill markers;fill:#60b0f4;fill-opacity:1"
             id="g77">
            <path
               d="m 118.9175,156 h -81.6 V 35.3 h 11.9 v 110.16 h 69.7 z m 26.69,0 h -11.56 V 67.43 h 11.56 z m 0,-107.1 h -11.56 v -17 h 11.56 z m 64.94,93.5 3.06,9.35 q -1.02,0.51 -2.975,1.36 -1.955,0.85 -4.505,1.7 -2.55,0.85 -5.78,1.53 -3.23,0.68 -6.8,0.68 v 0 q -3.74,0 -7.14,-1.02 -3.4,-1.02 -5.95,-3.145 -2.55,-2.125 -4.08,-5.355 -1.53,-3.23 -1.53,-7.48 v 0 -63.41 h -12.24 v -9.18 h 12.24 V 37.51 h 11.56 v 29.92 h 20.4 v 9.18 h -20.4 v 60.18 q 0.34,4.93 3.485,7.225 3.145,2.295 7.225,2.295 v 0 q 4.93,0 8.67,-1.615 3.74,-1.615 4.76,-2.295 z m 53.55,15.3 v 0 q -9.69,0 -17.765,-3.655 -8.075,-3.655 -14.025,-10.03 -5.95,-6.375 -9.265,-14.705 -3.315,-8.33 -3.315,-17.85 v 0 q 0,-9.35 3.315,-17.595 3.315,-8.245 9.18,-14.45 5.865,-6.205 14.025,-9.86 8.16,-3.655 17.68,-3.655 v 0 q 9.69,0 17.765,3.655 8.075,3.655 13.855,9.945 5.78,6.29 9.01,14.45 3.23,8.16 3.23,17.34 v 0 q 0,1.36 0,2.72 0,1.36 -0.17,1.87 v 0 h -75.82 q 0.51,7.14 3.315,13.175 2.805,6.035 7.225,10.455 4.42,4.42 10.115,6.885 5.695,2.465 12.155,2.465 v 0 q 4.25,0 8.5,-1.19 4.25,-1.19 7.82,-3.23 3.57,-2.04 6.46,-5.015 2.89,-2.975 4.42,-6.545 v 0 l 10.03,2.72 q -2.04,4.93 -5.78,8.925 -3.74,3.995 -8.67,6.97 -4.93,2.975 -10.88,4.59 -5.95,1.615 -12.41,1.615 z m -32.47,-50.66 h 65.11 q -0.51,-7.14 -3.315,-13.005 -2.805,-5.865 -7.14,-10.115 -4.335,-4.25 -10.03,-6.63 -5.695,-2.38 -12.155,-2.38 v 0 q -6.46,0 -12.24,2.38 -5.78,2.38 -10.115,6.63 -4.335,4.25 -6.97,10.2 -2.635,5.95 -3.145,12.92 z m 87.89,4.42 v 0 q 0,-9.35 3.23,-17.68 3.23,-8.33 9.095,-14.535 5.865,-6.205 14.025,-9.775 8.16,-3.57 18.02,-3.57 v 0 q 12.58,0 21.93,5.695 9.35,5.695 14.11,15.385 v 0 l -11.22,3.57 q -3.74,-6.8 -10.455,-10.625 -6.715,-3.825 -14.875,-3.825 v 0 q -6.8,0 -12.665,2.72 -5.865,2.72 -10.2,7.395 -4.335,4.675 -6.8,11.135 -2.465,6.46 -2.465,14.11 v 0 q 0,7.48 2.55,14.11 2.55,6.63 6.97,11.475 4.42,4.845 10.285,7.65 5.865,2.805 12.495,2.805 v 0 q 4.25,0 8.415,-1.19 4.165,-1.19 7.735,-3.315 3.57,-2.125 6.12,-4.845 2.55,-2.72 3.57,-5.78 v 0 l 11.39,3.4 q -1.87,4.76 -5.44,8.755 -3.57,3.995 -8.415,6.97 -4.845,2.975 -10.71,4.59 -5.865,1.615 -12.155,1.615 v 0 q -9.69,0 -17.85,-3.655 -8.16,-3.655 -14.11,-10.03 -5.95,-6.375 -9.265,-14.705 -3.315,-8.33 -3.315,-17.85 z m 121.72,46.24 v 0 q -6.29,0 -11.645,-2.125 -5.355,-2.125 -9.35,-5.865 -3.995,-3.74 -6.205,-8.755 -2.21,-5.015 -2.21,-10.795 v 0 q 0,-5.78 2.72,-10.71 2.72,-4.93 7.65,-8.5 4.93,-3.57 11.73,-5.525 6.8,-1.955 14.96,-1.955 v 0 q 6.8,0 13.77,1.19 6.97,1.19 12.41,3.4 v 0 -7.99 q 0,-11.73 -6.63,-18.615 -6.63,-6.885 -18.36,-6.885 v 0 q -6.8,0 -13.94,2.72 -7.14,2.72 -14.45,7.82 v 0 l -4.08,-7.65 q 17.17,-11.56 33.32,-11.56 v 0 q 16.66,0 26.18,9.35 9.52,9.35 9.52,25.84 v 0 39.95 q 0,4.76 4.25,4.76 v 0 10.2 q -2.89,0.51 -4.42,0.51 v 0 q -4.42,0 -6.885,-2.21 -2.465,-2.21 -2.635,-6.12 v 0 l -0.34,-6.97 q -6.12,7.99 -15.385,12.24 -9.265,4.25 -19.975,4.25 z m 2.72,-8.84 v 0 q 9.01,0 16.575,-3.4 7.565,-3.4 11.475,-9.01 v 0 q 1.53,-1.53 2.295,-3.315 0.765,-1.785 0.765,-3.315 v 0 -14.45 q -5.78,-2.21 -11.985,-3.4 -6.205,-1.19 -12.665,-1.19 v 0 q -12.24,0 -19.89,5.1 -7.65,5.1 -7.65,13.43 v 0 q 0,4.08 1.615,7.65 1.615,3.57 4.42,6.205 2.805,2.635 6.715,4.165 3.91,1.53 8.33,1.53 z m 97.07,8.84 v 0 q -10.37,0 -20.23,-3.4 -9.86,-3.4 -17,-9.86 v 0 l 5.27,-7.82 q 7.48,6.12 15.215,9.18 7.735,3.06 16.575,3.06 v 0 q 10.71,0 17.085,-4.335 6.375,-4.335 6.375,-12.325 v 0 q 0,-3.74 -1.7,-6.205 -1.7,-2.465 -5.015,-4.335 -3.315,-1.87 -8.33,-3.315 -5.015,-1.445 -11.645,-2.975 v 0 q -7.65,-1.87 -13.26,-3.74 -5.61,-1.87 -9.265,-4.25 -3.655,-2.38 -5.44,-5.865 -1.785,-3.485 -1.785,-8.755 v 0 q 0,-6.63 2.635,-11.73 2.635,-5.1 7.14,-8.415 4.505,-3.315 10.54,-5.015 6.035,-1.7 12.835,-1.7 v 0 q 10.2,0 18.53,3.315 8.33,3.315 13.43,8.755 v 0 l -5.61,6.8 q -4.93,-5.1 -11.985,-7.65 -7.055,-2.55 -14.705,-2.55 v 0 q -4.59,0 -8.5,0.935 -3.91,0.935 -6.885,2.975 -2.975,2.04 -4.675,5.185 -1.7,3.145 -1.7,7.395 v 0 q 0,3.57 1.19,5.78 1.19,2.21 3.91,3.825 2.72,1.615 6.885,2.89 4.165,1.275 10.115,2.635 v 0 q 8.5,2.04 14.96,4.08 6.46,2.04 10.795,4.76 4.335,2.72 6.545,6.63 2.21,3.91 2.21,9.52 v 0 q 0,12.24 -9.35,19.38 -9.35,7.14 -25.16,7.14 z m 127.84,-53.55 V 156 h -11.56 v -49.47 q 0,-15.13 -5.185,-22.61 -5.185,-7.48 -15.215,-7.48 v 0 q -4.93,0 -9.775,1.955 -4.845,1.955 -9.095,5.355 -4.25,3.4 -7.395,7.99 -3.145,4.59 -4.675,10.03 v 0 54.23 h -11.56 V 31.9 h 11.56 v 55.59 q 5.27,-10.03 14.62,-15.81 9.35,-5.78 20.23,-5.78 v 0 q 7.65,0 12.92,2.805 5.27,2.805 8.67,7.82 3.4,5.015 4.93,12.07 1.53,7.055 1.53,15.555 z"
               sketchjs:uid="3"
               style="fill:#60b0f4;fill-opacity:1"
               id="path75" />
          </g>
        </g>
      </g>
      <path
         id="path83"
         style="vector-effect:non-scaling-stroke;fill:#60b0f4;fill-opacity:1;stroke-width:0.663835"
         transform="matrix(1.0426654,0,0,1.030733,278.20287,-38.456845)"
         d="m 138.23828,266.70508 0.008,0.008 c -6.9e-4,-0.002 -8.9e-4,-0.004 -0.002,-0.006 -0.003,-8.9e-4 -0.003,-9e-4 -0.006,-0.002 z m -35.24805,8.5957 c -0.2795,0.42771 -0.55717,0.85551 -0.84375,1.2793 -10e-4,0.048 -0.004,0.0965 -0.006,0.14453 0.32626,-0.40612 0.65678,-0.81454 0.91797,-1.17188 -0.0237,-0.0838 -0.0449,-0.16804 -0.0684,-0.25195 z m 76.2461,62.55274 c -0.40608,0.0955 -0.91557,0.15605 -1.46875,0.20117 0.0451,0.40955 0.10565,0.81774 0.19336,1.22265 0.25856,1.19325 0.76046,0.20105 1.27539,-1.42382 z m -24.4961,0.875 c 0.10329,0.14586 0.11447,0.14085 0.0645,0.0312 -0.0214,-0.01 -0.0431,-0.0217 -0.0645,-0.0312 z" />
    </g>
    <path
       style="fill:#60b0f4;fill-opacity:1;stroke-width:1.01015"
       d="M 2.7022847,186.16003 C 3.5015719,184.63218 12.815592,168.60863 23.400105,150.55216 L 42.644677,117.7222 27.633973,117.21712 12.623269,116.71205 18.879302,106.10544 25.135336,95.498843 40.652877,94.993767 56.17042,94.48869 62.432587,83.882089 C 65.876778,78.048458 77.683929,57.901383 88.670698,39.110813 L 108.64665,4.9461396 115.05552,15.877305 c 3.52488,6.01214 6.41598,11.158449 6.42467,11.436241 0.009,0.277792 -18.08706,31.415744 -40.212803,69.195449 l -40.228613,68.690375 80.893796,0.27417 80.89378,0.27417 6.75187,11.59513 6.75186,11.59511 H 108.78956 1.2490355 Z M 179.59284,182.87704 c 0.34337,-0.55559 0.14292,-1.01015 -0.44546,-1.01015 -0.58837,0 -1.06977,0.45456 -1.06977,1.01015 0,0.55558 0.20046,1.01015 0.44546,1.01015 0.245,0 0.7264,-0.45457 1.06977,-1.01015 z"
       id="path224"
       transform="scale(0.26458333)" />
    <path
       style="fill:#60b0f4;fill-opacity:1;stroke-width:1.01015"
       d="m 70.159649,148.69117 c 0.185195,-0.46796 13.964608,-24.09846 30.620921,-52.512231 23.13978,-39.473838 30.55388,-51.367219 31.42736,-50.414409 0.62873,0.685845 7.312,11.815712 14.85171,24.733037 l 13.70855,23.486047 h -12.97932 c -12.61164,0 -13.03177,-0.07037 -14.83133,-2.484148 l -1.85202,-2.484148 -10.6066,18.192942 c -5.83363,10.00612 -10.75813,18.62437 -10.94332,19.15167 -0.20587,0.58616 8.36925,0.95872 22.0668,0.95872 h 22.40353 l -2.68138,-4.57543 -2.68138,-4.57542 13.29092,0.28228 13.29091,0.28227 7.06602,12.12183 c 3.88631,6.66701 7.96999,13.59918 9.07484,15.40483 l 2.00882,3.28299 H 131.6088 c -33.982226,0 -61.634346,-0.38287 -61.449151,-0.85083 z"
       id="path226"
       transform="scale(0.26458333)" />
  </g>
  <style
     type="text/css"
     id="style24">
	.st0{fill:#4FA2F0;}
</style>
</svg>
